X: 119006
T: LOUDONS BONNIE WOODS
Q: "Highland Schottische."
R: Schottische.
%R: shottish
B: James Kerr "Merry Melodies" v.1 p.19 s.0 #6
Z: 2017 John Chambers <jc:trillian.mit.edu>
M: C
L: 1/8
K: G
vG2uG>uG (B<d)d2 | vc>vAuB>uG A>G (F<D) |\
G2G>G (B<d)d2 | e<g f<a g2g2 |]\
vg>vab>g a>g (f<d) | e>fg>e d<B B<G |
g>ab>g a>g (f<d) | e<g f<a g2g2 |\
g>ab>g a>gf>d | e>fg>e d<B B>uA |\
G2G>G (B<d)d2 | e<g f<a g2g2 |]

%%sep 1 1 500
%%sep 1 1 500

